z_dist/img/icons/little-search.svg

<svg width="15" height="15" viewBox="0 0 15 15" fill="none" xmlns="http://www.w3.org/2000/svg">
<g clip-path="url(#clip0_429_104)">
<rect width="15" height="15" rx="7.5" fill="white"/>
<path d="M11.8374 10.7933L15 13.9552L13.9552 15L10.7933 11.8374C9.61682 12.7805 8.15349 13.2935 6.64566 13.2913C2.97726 13.2913 0 10.3141 0 6.64566C0 2.97726 2.97726 0 6.64566 0C10.3141 0 13.2913 2.97726 13.2913 6.64566C13.2935 8.15349 12.7805 9.61682 11.8374 10.7933ZM10.3562 10.2454C11.2933 9.28169 11.8166 7.98988 11.8145 6.64566C11.8145 3.7895 9.50108 1.47681 6.64566 1.47681C3.7895 1.47681 1.47681 3.7895 1.47681 6.64566C1.47681 9.50108 3.7895 11.8145 6.64566 11.8145C7.98988 11.8166 9.28169 11.2933 10.2454 10.3562L10.3562 10.2454V10.2454Z" fill="#252525"/>
</g>
<defs>
<clipPath id="clip0_429_104">
<rect width="15" height="15" rx="7.5" fill="white"/>
</clipPath>
</defs>
</svg>

<svg width="15" height="15" fill="none" xmlns="http://www.w3.org/2000/svg"><g clip-path="url(#clip0_429_104)"><rect width="15" height="15" rx="7.5" fill="#fff"/><path d="M11.837 10.793L15 13.955 13.955 15l-3.162-3.163a6.616 6.616 0 01-4.147 1.454A6.648 6.648 0 010 6.646 6.648 6.648 0 016.646 0a6.648 6.648 0 016.645 6.646 6.616 6.616 0 01-1.454 4.147zm-1.48-.548a5.152 5.152 0 001.458-3.6 5.167 5.167 0 00-5.17-5.168 5.167 5.167 0 00-5.168 5.169 5.167 5.167 0 005.169 5.169 5.152 5.152 0 003.6-1.459l.11-.11z" fill="#252525"/></g><defs><clipPath id="clip0_429_104"><rect width="15" height="15" rx="7.5" fill="#fff"/></clipPath></defs></svg>
